Pods/ProtonCore-UIFoundations/libraries/UIFoundations/Sources/Assets.xcassets/Images/IconSet/ic-pause.imageset/ic-pause.svg

<svg width="24" height="24" viewBox="0 0 24 24" fill="none" xmlns="http://www.w3.org/2000/svg">
<path fill-rule="evenodd" clip-rule="evenodd" d="M6.75 6H9.75V18H6.75V6ZM5.25 6C5.25 5.17157 5.92157 4.5 6.75 4.5H9.75C10.5784 4.5 11.25 5.17157 11.25 6V18C11.25 18.8284 10.5784 19.5 9.75 19.5H6.75C5.92157 19.5 5.25 18.8284 5.25 18V6ZM14.25 6H17.25V18H14.25V6ZM12.75 6C12.75 5.17157 13.4216 4.5 14.25 4.5H17.25C18.0784 4.5 18.75 5.17157 18.75 6V18C18.75 18.8284 18.0784 19.5 17.25 19.5H14.25C13.4216 19.5 12.75 18.8284 12.75 18V6Z" fill="#0C0C14"/>
</svg>

<svg xmlns="http://www.w3.org/2000/svg" width="24" height="24" viewBox="0 0 24 24">
  <g class="ic-pause">
    <path fill-rule="evenodd" d="M6.75 6h3v12h-3V6Zm-1.5 0a1.5 1.5 0 0 1 1.5-1.5h3a1.5 1.5 0 0 1 1.5 1.5v12a1.5 1.5 0 0 1-1.5 1.5h-3a1.5 1.5 0 0 1-1.5-1.5V6Zm9 0h3v12h-3V6Zm-1.5 0a1.5 1.5 0 0 1 1.5-1.5h3a1.5 1.5 0 0 1 1.5 1.5v12a1.5 1.5 0 0 1-1.5 1.5h-3a1.5 1.5 0 0 1-1.5-1.5V6Z" class="Icon"/>
  </g>
</svg>
